X:1
T:Title
%%score { 1 | 2 }
L:1/8
Q:1/4=92
M:6/8
K:C
V:1 treble nm="Grand Piano"
V:2 bass 
V:1
 [EG][_E^F][=EG] [=FA]2 [EG] | G3 F3 | FGA B2 A | [EG]6 | [CG][C^F][CG] [^CA]2 [CE] | [EG]3 F3 | %6
w: Haldor~Lillenas * * * *||||||
 FGA B2 G | [Ec]6 | [DG][EG][FG] [EG]3 | [_EA][EB][Ec] [=EG]3 | ccc c2 c | ABc d3 | GG[FG] [EG]3 | %13
w: |||||||
 ABc G3 |[M:13/16] [Ge][Fd][Ec][Fd][Ac]3/2A | %15
w: ||
[M:3/4] G2 GG G[FG][Q:1/4=90][Q:1/4=89][Q:1/4=87][Q:1/4=86][Q:1/4=85][Q:1/4=83][Q:1/4=82][Q:1/4=81][Q:1/4=79][Q:1/4=78][Q:1/4=77][Q:1/4=75][Q:1/4=74][Q:1/4=73][Q:1/4=71][Q:1/4=70] | %16
w: |
 [EG]6 |] %17
w: |
V:2
 [C,C][C,C][C,C] [C,C]2 [C,C] | [G,CE]3 [G,B,D]3 | [G,B,D][G,B,E][G,B,F] [G,DF]2 [G,B,F] | [C,C]6 | %4
 [C,E,][C,_E,][_B,,=E,] [A,,E,]2 [A,,A,] | [D,A,]3 [D,A,D]3 | %6
 [G,B,D][G,B,E][G,B,F] [G,DF]2 [G,B,F] | [C,C]6 | [F,B,][E,C][D,B,] [C,C]3 | %9
 [C,C][C,B,][C,A,] [C,C]3 | [A,CE][A,CE][A,CE] [A,EA]2 [A,_EG] | [CD^F][B,DF][A,DF] [G,B,=F]3 | %12
 [F,B,D][E,CE][D,B,] [C,C]3 | [F,CF][K:treble][G,CF][A,CF] [CE]3 | %14
[M:13/16][K:bass] [C,_B,][C,B,][C,B,][F,A,][F,A,]3/2[F,CF] | %15
[M:3/4] [G,CE]2 [G,CE][F,B,D] [E,CE][D,B,] | [C,C]6 |] %17

